icon-themes/sifr_svg/cmd/lc_heading6parastyle.svg

<svg viewBox="0 0 24 24" xmlns="http://www.w3.org/2000/svg"><path d="m2 2v20h3v-8h6v8h3v-20h-3v9h-6v-9zm19 8a5 5 0 0 0 -5 5v3.5a3.5 3.5 0 0 0 3.5 3.5 3.5 3.5 0 0 0 3.5-3.5 3.5 3.5 0 0 0 -3.5-3.5 3.5 3.5 0 0 0 -1.5.341797v-.341797a3 3 0 0 1 3-3h1v-2zm-1.5 7a1.5 1.5 0 0 1 1.5 1.5 1.5 1.5 0 0 1 -1.5 1.5 1.5 1.5 0 0 1 -1.5-1.5 1.5 1.5 0 0 1 1.5-1.5z" fill="#555753"/></svg>

<svg xmlns="http://www.w3.org/2000/svg" viewBox="0 0 24 24">
  <path
     style="fill:#555753"
     d="M 2 2 L 2 22 L 5 22 L 5 14 L 11 14 L 11 22 L 14 22 L 14 2 L 11 2 L 11 11 L 5 11 L 5 2 L 2 2 z M 21 10 A 5 5 0 0 0 16 15 L 16 18.5 A 3.5 3.5 0 0 0 19.5 22 A 3.5 3.5 0 0 0 23 18.5 A 3.5 3.5 0 0 0 19.5 15 A 3.5 3.5 0 0 0 18 15.341797 L 18 15 A 3 3 0 0 1 21 12 L 22 12 L 22 10 L 21 10 z M 19.5 17 A 1.5 1.5 0 0 1 21 18.5 A 1.5 1.5 0 0 1 19.5 20 A 1.5 1.5 0 0 1 18 18.5 A 1.5 1.5 0 0 1 19.5 17 z "
     />
</svg>
